X: 156
T: Na'arah
C: Shlomo Shai 1970
O: Israel
M: 2/4
L: 1/8
Q: 1/4=120
K: Dm octave=1
%%MIDI program 73
P:A
  d/e/d/c/d2-|d4       |=BcBG|A4  |\
  G/A/G/F/G2 |E2E2     |D4   |D4  |
P:B
|:z2 A/B/A/G/|A3C      |FGED |F4- |\
  F2 A/B/A/G/|A2c2     |=BdBG|A4- |
  A2 G/A/G/F/|G3C      |FGAB |G4- |\
  G2 G/A/G/F/|G3C      |FGED |D4  :|
P:C
Q:1/4=160
|:.G.A.B.G   |.A.B.A.D |FzGz |EzAz|\
  .G.A.=B.G  |.=B.d.B.G|A4-  |A4  |
  .D.E.F.D   |.B,.D.F.G|E4   |A4  |\
  .G.A.B.G   |.F.D.B,E |D4-  |D4  :|



